storage/app/icons/phosphoricons/bold/image-broken-bold.svg

<svg xmlns="http://www.w3.org/2000/svg" fill="currentColor" viewBox="0 0 256 256"><path d="M231 112a12 12 0 0 0-10.81-1.65l-23.81 7.93a12 12 0 0 0-7.34 6.93l-13.67 34.18-34.18 13.67a12 12 0 0 0-6.93 7.34l-7.93 23.81a12 12 0 0 0 11.4 15.79H216a20 20 0 0 0 20-20v-78.27a12 12 0 0 0-5-9.73m-19 84h-57.62l.91-2.73 33.79-13.51a12 12 0 0 0 6.68-6.68l13.51-33.79 2.73-.91Zm4-160H40a20 20 0 0 0-20 20v144a20 20 0 0 0 20 20h55.57a12 12 0 0 0 11.43-8.21L123.21 163l35.09-14a12 12 0 0 0 6.7-6.7l14-35.09L227.79 91A12 12 0 0 0 236 79.57V56a20 20 0 0 0-20-20M102.2 150.16 86.92 196H44v-22.34l48-48 17.14 17.14a12 12 0 0 0-6.94 7.36M212 70.92 166.16 86.2a12 12 0 0 0-7.35 6.93l-14.2 35.48-11.22 4.49-27.25-27.24a20 20 0 0 0-28.28 0L44 139.72V60h168Z"/></svg>

<svg xmlns="http://www.w3.org/2000/svg" viewBox="0 0 256 256" fill="currentColor"><path d="M231,112a12,12,0,0,0-10.81-1.65l-23.81,7.93a12,12,0,0,0-7.34,6.93l-13.67,34.18-34.18,13.67a12,12,0,0,0-6.93,7.34l-7.93,23.81A12,12,0,0,0,137.73,220H216a20,20,0,0,0,20-20V121.73A12,12,0,0,0,231,112Zm-19,84H154.38l.91-2.73,33.79-13.51a12,12,0,0,0,6.68-6.68l13.51-33.79,2.73-.91Zm4-160H40A20,20,0,0,0,20,56V200a20,20,0,0,0,20,20H95.57A12,12,0,0,0,107,211.79L123.21,163l35.09-14A12,12,0,0,0,165,142.3l14-35.09L227.79,91A12,12,0,0,0,236,79.57V56A20,20,0,0,0,216,36ZM102.2,150.16,86.92,196H44V173.66l48-48,17.14,17.14h0A12,12,0,0,0,102.2,150.16ZM212,70.92,166.16,86.2a12,12,0,0,0-7.35,6.93l-14.2,35.48-11.22,4.49-27.25-27.24a20,20,0,0,0-28.28,0L44,139.72V60H212Z"/></svg>
